X: 87
T:Westphalia Waltz - First Violin
M:3/4
L:1/4
R:Waltz
K:G
D|:"G"(G2A)|(B (3B/2c/2d/2 e)|(d2-d3/4e/4)|d2 (3D/2E/2F/2|G2-A|B2 c3/4-D
/4|"Am"(A2-A/2B/2)|"D7"A2 D|!
"Am"A2-B|"Am7"c2-g|"D7"(f2-f3/4g/4)|(f2 (3e/2f/2e/2)|d2-e|[1d2-c|"G"(B2
B3/4-c/4)|B2 (3D/2E/2F/2:|!
[2d2-f|"G"g3/2f/2 g3/4-a/4|g z/2 B/2 c/2^c/2||"G"d z/2 d/2 (3d/2d/2d/2|"
Gmaj7"d z/2 d/2 (3d/2d/2d/2|\
"G6"d e f/2-g/2|"G"B3|!
((3B/2c/2B/2 A) G|"G#7"((3B/2c/2B/2 A) G|"Am7"(c2-c3/4d/4)|"D7"c3|"Am"e
z/2 e/2 (3e/2e/2e/2|\
"G#aug"e z/2 e/2 (3e/2e/2e/2|"C"efg|"D7"f2-e|!
d3/2 ^c/2 (d3/4e/4)|[1d _d c|"G"(B2-B3/4c/4)|B2 (3B/2c/2^c/2:|[2d2-F|"G"
(3G/2A/2G/2 F/2-G/2 B/2-d/2|[B3g3]|]
